!!!SOCIAL_FUNCTION:	dance songs
!!!REG: Great Lakes
!!!PDT:	1913
!!!OTL: No_165_He_Killed_a_Man.krn
**kern	**kern
*staff2	*staff1
=1-	=1-
*clefF4	*clefF4
*k[f#c#g#d#a#]	*k[f#c#g#d#a#]
*M5/4	*M5/4
8GG#/L	2.d#\
8GG#/	.
8GG#/	.
8GG#/	.
8GG#/	.
8GG#/J	.
8GG#/L	4c#\
8GG#/	.
8GG#/	4B\
8GG#/J	.
=2	=2
1r	2.c#\
.	4B\
4r	4G#~\
=3	=3
1r	2.B\
.	4G#\
4r	4F#\
=4	=4
1r	2.G#\
.	4F#\
4r	4D#\
=5	=5
1r	2.F#\
.	4F#\
4r	4D#\
=6||	=6||
*M6/4	*M6/4
1.r	4D#\
.	[2D#\
.	2D#\]
.	8r
.	8d#\
=7||	=7||
*M5/4	*M5/4
1r	4d#\
.	8B\L
.	8B\J
.	2G#\
4r	4B\
=8||	=8||
*M3/4	*M3/4
2.r	4G#\
.	4F#\
.	8.D#\L
.	16D#\Jk
=9	=9
2.r	2G#\
.	4G#\
=10	=10
2.r	4G#\
.	4F#\
.	8.D#\L
.	16D#\Jk
=11||	=11||
*M5/4	*M5/4
1r	2.F#\
.	4F#\
4r	4D#\
=12||	=12||
*M3/4	*M3/4
2.r	4D#\
.	16D#\LK
.	[8.D#\J
.	8.D#\L]
.	16D#\Jk
=13	=13
2.r	2.D#\
==	==
*-	*-
